icons/hicolor/scalable/actions/abm-model-buds-symbolic.svg

<svg height="16" viewBox="0 0 16 16" width="16" xmlns="http://www.w3.org/2000/svg"><path d="m4.8827366 4.6314347c-.4501822-.0018264-.8811136.2650422-1.0710482.7179637l-.8378143 1.9282672c-.2532468.584415.0197852 1.2663861.6042 1.5196327.584415.2532466 1.2660061-.0388095 1.5192524-.6232245l.8572192-1.9286475c.2532463-.584415-.0193289-1.2663863-.6232245-1.5196329-.1461041-.0633114-.298524-.09375-.4485846-.0943587zm6.2512684 0c-.148539.0006087-.299437.0310473-.445541.0943587-.584415.2532466-.8768512.9546984-.623605 1.5196329l.857219 1.9286475c.233766.584415.895952.8764711 1.499848.6232245.584415-.2532466.876851-.9352177.623605-1.5196327l-.837815-1.9282672c-.204545-.4529215-.628095-.7197901-1.073711-.7179637zm-4.7118509 1.4773997c-.0194807.0974024-.0584416.1951097-.0974025.3119926l-.8572192 1.9282672c-.3506488.7792198-1.2661583 1.1495784-2.064859.8184103-.7792196-.3506493-1.1494264-1.2080215-.8572187-1.9872415-.3896103.4675319-.4676085 1.1691362-.1754008 1.9678367.5259733 1.4610373 1.8702834 1.7530183 3.1754767 1.2270443l.7986253-.311612c1.090908-.4090906 1.5973265-1.4222312 1.2856381-2.4936586-.2142854-.7207787-.7595884-1.071429-1.2076399-1.461039zm3.1750965.0197848c-.4870123.3701295-1.012759.7204755-1.2270443 1.4412542-.3116884 1.0714274.1947301 2.0844921 1.2856378 2.5130626l.7986249.311613c1.324674.506493 2.649504.233993 3.175478-1.2270445.292207-.7987007.194728-1.4999246-.175401-1.9674567.292207.77922-.077999 1.6362119-.857219 1.986861-.77922.3311682-1.694806-.03881-2.045455-.8180298l-.8572188-1.9286474c-.0389609-.0974027-.0779223-.1947293-.0974026-.3116124zm4.5391134 1.5584416c.097402.545454.058593 1.071277-.136211 1.5972506-.292208.8181806-.857144 1.3832696-1.558442 1.6170356.331168.292207.740108.447823 1.20764.447823 1.012986 0 1.850649-.837587 1.850649-1.8700535 0-.8571421-.584416-1.5777702-1.363636-1.7920557zm-12.2727277.0194045c-.7792201.2142855-1.3636363.9349136-1.3636363 1.7920555 0 1.0324672.8181828 1.8700542 1.8506495 1.8700542.4675322 0 .8959519-.175097 1.2076399-.447824-.7012982-.253246-1.2467535-.798778-1.5584414-1.6364396-.1948051-.5454541-.2336143-1.0713531-.1362117-1.5778461z" fill="#2e3436" stroke-width=".194805"/></svg>

<?xml version="1.0" encoding="UTF-8" standalone="no"?>
<svg
   height="16"
   viewBox="0 0 16 16"
   width="16"
   version="1.1"
   id="svg1"
   sodipodi:docname="abm-model-airpod3-symbolic.svg"
   inkscape:version="1.3.2 (091e20ef0f, 2023-11-25)"
   xmlns:inkscape="http://www.inkscape.org/namespaces/inkscape"
   xmlns:sodipodi="http://sodipodi.sourceforge.net/DTD/sodipodi-0.dtd"
   xmlns="http://www.w3.org/2000/svg"
   xmlns:svg="http://www.w3.org/2000/svg">
  <defs
     id="defs1" />
  <sodipodi:namedview
     id="namedview1"
     pagecolor="#ffffff"
     bordercolor="#000000"
     borderopacity="0.25"
     inkscape:showpageshadow="2"
     inkscape:pageopacity="0.0"
     inkscape:pagecheckerboard="0"
     inkscape:deskcolor="#d1d1d1"
     inkscape:zoom="72.8125"
     inkscape:cx="7.993133"
     inkscape:cy="8"
     inkscape:window-width="2560"
     inkscape:window-height="1371"
     inkscape:window-x="0"
     inkscape:window-y="32"
     inkscape:window-maximized="1"
     inkscape:current-layer="svg1" />
  <path
     id="path2"
     d="M 4.8827366,4.6314347 C 4.4325544,4.6296083 4.001623,4.8964769 3.8116884,5.3493984 L 2.9738741,7.2776656 C 2.7206273,7.8620806 2.9936593,8.5440517 3.5780741,8.7972983 4.1624891,9.0505449 4.8440802,8.7584888 5.0973265,8.1740738 L 5.9545457,6.2454263 C 6.207792,5.6610113 5.9352168,4.97904 5.3313212,4.7257934 5.1852171,4.662482 5.0327972,4.6320434 4.8827366,4.6314347 Z M 11.134005,4.6314347 C 10.985466,4.6320434 10.834568,4.662482 10.688464,4.7257934 10.104049,4.97904 9.8116128,5.6804918 10.064859,6.2454263 L 10.922078,8.1740738 C 11.155844,8.7584888 11.81803,9.0505449 12.421926,8.7972983 13.006341,8.5440517 13.298777,7.8620806 13.045531,7.2776656 L 12.207716,5.3493984 C 12.003171,4.8964769 11.579621,4.6296083 11.134005,4.6314347 Z M 6.4221541,6.1088344 C 6.4026734,6.2062368 6.3637125,6.3039441 6.3247516,6.420827 L 5.4675324,8.3490942 C 5.1168836,9.128314 4.2013741,9.4986726 3.4026734,9.1675045 2.6234538,8.8168552 2.253247,7.959483 2.5454547,7.180263 2.1558444,7.6477949 2.0778462,8.3493992 2.3700539,9.1480997 2.8960272,10.609137 4.2403373,10.901118 5.5455306,10.375144 L 6.3441559,10.063532 C 7.4350639,9.6544414 7.9414824,8.6413008 7.629794,7.5698734 7.4155086,6.8490947 6.8702056,6.4984444 6.4221541,6.1088344 Z M 9.5972506,6.1286192 C 9.1102383,6.4987487 8.5844916,6.8490947 8.3702063,7.5698734 8.0585179,8.6413008 8.5649364,9.6543655 9.6558441,10.082936 L 10.454469,10.394549 C 11.779143,10.901042 13.103973,10.628542 13.629947,9.1675045 13.922154,8.3688038 13.824675,7.6675799 13.454546,7.2000478 13.746753,7.9792678 13.376547,8.8362597 12.597327,9.1869088 11.818107,9.518077 10.902521,9.1480988 10.551872,8.368879 L 9.6946532,6.4402316 C 9.6556923,6.3428289 9.6167309,6.2455023 9.5972506,6.1286192 Z M 14.136364,7.6870608 C 14.233766,8.2325148 14.194957,8.7583378 14.000153,9.2843114 13.707945,10.102492 13.143009,10.667581 12.441711,10.901347 12.772879,11.193554 13.181819,11.34917 13.649351,11.34917 14.662337,11.34917 15.5,10.511583 15.5,9.4791165 15.5,8.6219744 14.915584,7.9013463 14.136364,7.6870608 Z M 1.8636363,7.7064653 C 1.0844162,7.9207508 0.5,8.6413789 0.5,9.4985208 0.5,10.530988 1.3181828,11.368575 2.3506495,11.368575 2.8181817,11.368575 3.2466014,11.193478 3.5582894,10.920751 2.8569912,10.667505 2.3115359,10.121973 1.999848,9.2843114 1.8050429,8.7388573 1.7662337,8.2129583 1.8636363,7.7064653 Z"
     style="stroke-width:0.194805;fill:#2e3436;fill-opacity:1" />
</svg>
